src/assets/images/analysis_execute_images/ExecuteImg3.svg

<svg width="238" height="144" viewBox="0 0 238 144" fill="none" xmlns="http://www.w3.org/2000/svg">
<g clip-path="url(#clip0_1506_37385)">
<path d="M19.7026 31.2416C26.4764 31.2416 31.9677 25.7577 31.9677 18.9931C31.9677 12.2285 26.4764 6.74463 19.7026 6.74463C12.9288 6.74463 7.4375 12.2285 7.4375 18.9931C7.4375 25.7577 12.9288 31.2416 19.7026 31.2416Z" fill="#FF6584"/>
<path d="M118.386 144C183.768 144 236.771 141.854 236.771 139.207C236.771 136.56 183.768 134.414 118.386 134.414C53.0031 134.414 0 136.56 0 139.207C0 141.854 53.0031 144 118.386 144Z" fill="#E6E6E6"/>
<path d="M30.1295 79.1409C46.7695 79.1409 60.259 65.6698 60.259 49.0523C60.259 32.4348 46.7695 18.9636 30.1295 18.9636C13.4894 18.9636 0 32.4348 0 49.0523C0 65.6698 13.4894 79.1409 30.1295 79.1409Z" fill="#6C63FF"/>
<path d="M33.0345 139.681H26.8633L29.6765 44.5208L33.0345 139.681Z" fill="#3F3D56"/>
<path d="M30.219 62.5559L36.8441 53.4026L30.1284 64.8216L29.4023 63.5528L30.219 62.5559Z" fill="#3F3D56"/>
<path d="M29.4958 71.8001L22.8711 62.6467L29.5868 74.0658L30.3128 72.797L29.4958 71.8001Z" fill="#3F3D56"/>
<path d="M220.64 139.781H214.469L217.282 44.6208L220.64 139.781Z" fill="#3F3D56"/>
<path d="M217.828 62.656L224.453 53.5027L217.738 64.9217L217.012 63.6529L217.828 62.656Z" fill="#3F3D56"/>
<path d="M217.101 71.9002L210.477 62.7468L217.192 74.1659L217.918 72.8971L217.101 71.9002Z" fill="#3F3D56"/>
<path d="M122.401 139.765C153.399 139.765 178.528 114.67 178.528 83.7139C178.528 52.7578 153.399 27.6628 122.401 27.6628C91.4024 27.6628 66.2734 52.7578 66.2734 83.7139C66.2734 114.67 91.4024 139.765 122.401 139.765Z" fill="#3F3D56"/>
<path d="M122.399 135.125C150.831 135.125 173.88 112.107 173.88 83.7138C173.88 55.3202 150.831 32.3027 122.399 32.3027C93.9667 32.3027 70.918 55.3202 70.918 83.7138C70.918 112.107 93.9667 135.125 122.399 135.125Z" fill="white"/>
<path d="M122.212 90.7666C126.01 90.7666 129.089 87.692 129.089 83.8994C129.089 80.1068 126.01 77.0322 122.212 77.0322C118.415 77.0322 115.336 80.1068 115.336 83.8994C115.336 87.692 118.415 90.7666 122.212 90.7666Z" fill="#3F3D56"/>
<path d="M123.7 34.9011H120.727V40.4691H123.7V34.9011Z" fill="#3F3D56"/>
<path d="M123.7 127.33H120.727V132.898H123.7V127.33Z" fill="#3F3D56"/>
<path d="M78.7227 85.3844V82.4148H73.1471V85.3844H78.7227Z" fill="#3F3D56"/>
<path d="M171.277 85.3844V82.4148H165.702V85.3844H171.277Z" fill="#3F3D56"/>
<path d="M120.23 86.8805L122.772 81.0776L154.614 98.6893L120.23 86.8805Z" fill="#3F3D56"/>
<path d="M129.649 14.114H115.152V30.818H129.649V14.114Z" fill="#3F3D56"/>
<path d="M122.398 18.7541C131.636 18.7541 139.125 16.6767 139.125 14.1141C139.125 11.5515 131.636 9.47412 122.398 9.47412C113.161 9.47412 105.672 11.5515 105.672 14.1141C105.672 16.6767 113.161 18.7541 122.398 18.7541Z" fill="#3F3D56"/>
<path d="M153.714 93.6434L152.784 94.9426C152.784 94.9426 148.51 99.9538 148.324 97.541C148.138 95.1282 151.483 93.4578 151.483 93.4578L153.342 92.3442L153.714 93.6434Z" fill="#FFB8B8"/>
<path d="M180.171 98.0267L180.949 99.4214C180.949 99.4214 183.655 105.424 181.392 104.559C179.128 103.694 179.048 99.9602 179.048 99.9602L178.836 97.8062L180.171 98.0267Z" fill="#FFB8B8"/>
<path d="M175.987 73.2955C179.113 73.2955 181.646 70.7653 181.646 67.6441C181.646 64.5229 179.113 61.9927 175.987 61.9927C172.862 61.9927 170.328 64.5229 170.328 67.6441C170.328 70.7653 172.862 73.2955 175.987 73.2955Z" fill="#2F2E41"/>
<path d="M175.461 114.059L176.204 118.885V120.37H180.479V118.514C180.479 118.514 180.665 115.173 179.921 114.245C179.178 113.317 175.461 114.059 175.461 114.059Z" fill="#FFB8B8"/>
<path d="M167.84 114.059L168.583 118.885V120.37H172.858V118.514C172.858 118.514 173.044 115.173 172.3 114.245C171.557 113.317 167.84 114.059 167.84 114.059Z" fill="#FFB8B8"/>
<path d="M170.718 75.2974C170.718 75.2974 169.074 76.1627 170.197 78.1313C171.32 80.0998 177.909 100.465 177.909 100.465L181.71 99.3876L178.358 86.5079L176.438 78.4129L170.718 75.2974Z" fill="#6C63FF"/>
<path d="M175.368 73.5058C177.729 73.5058 179.643 71.5946 179.643 69.237C179.643 66.8795 177.729 64.9683 175.368 64.9683C173.008 64.9683 171.094 66.8795 171.094 69.237C171.094 71.5946 173.008 73.5058 175.368 73.5058Z" fill="#FFB8B8"/>
<path d="M177.32 69.8867L176.762 78.6099L172.859 75.8259C172.859 75.8259 174.16 70.6291 173.789 70.2579L177.32 69.8867Z" fill="#FFB8B8"/>
<path d="M177.317 77.8674L173.112 74.7582C173.112 74.7582 171.184 73.9699 170.626 74.8979C170.068 75.8258 167.281 89.5602 168.767 92.1586C168.767 92.1586 176.759 93.829 178.432 92.901L179.175 88.0754C179.175 88.0754 180.104 85.1058 178.618 83.2498L177.317 77.8674Z" fill="#6C63FF"/>
<path d="M171.743 75.0835C171.743 75.0835 170.256 73.9699 168.955 75.8259C167.654 77.6819 152.043 92.3443 152.043 92.3443L154.645 95.3139L164.867 86.7763L171.371 81.5795L171.743 75.0835Z" fill="#6C63FF"/>
<path d="M178.526 92.8083C178.526 92.8083 169.326 91.0451 168.397 92.3443L168.211 94.3859C168.211 94.3859 166.167 98.2835 167.282 104.594C168.397 110.904 167.654 114.802 167.654 114.802C167.654 114.802 172.672 114.245 176.389 114.802C180.106 115.359 180.663 114.802 180.663 114.802L178.526 92.8083Z" fill="#2F2E41"/>
<path d="M180.851 119.627L175.461 119.813L177.319 133.733C177.319 133.733 175.833 139.672 177.505 140.043C178.668 140.278 179.85 140.402 181.036 140.415C181.036 140.415 182.709 142.085 184.568 141.899C185.802 141.742 186.998 141.365 188.099 140.786C188.099 140.786 188.471 139.672 187.17 139.301C185.869 138.93 182.337 137.816 181.594 133.919L180.851 119.627Z" fill="#2F2E41"/>
<path d="M173.23 119.627L167.84 119.813L169.698 133.733C169.698 133.733 168.212 139.672 169.884 140.043C171.047 140.278 172.229 140.402 173.415 140.415C173.415 140.415 175.088 142.085 176.947 141.899C178.181 141.742 179.377 141.365 180.478 140.786C180.478 140.786 180.849 139.672 179.548 139.301C178.248 138.93 174.716 137.816 173.973 133.919L173.23 119.627Z" fill="#2F2E41"/>
<path d="M177.967 64.0347C179.26 64.0347 180.308 62.9877 180.308 61.6962C180.308 60.4047 179.26 59.3577 177.967 59.3577C176.673 59.3577 175.625 60.4047 175.625 61.6962C175.625 62.9877 176.673 64.0347 177.967 64.0347Z" fill="#2F2E41"/>
<path d="M181.09 60.4293C181.09 59.8513 180.876 59.2938 180.488 58.8643C180.101 58.4348 179.568 58.1637 178.992 58.1035C179.073 58.0951 179.155 58.0908 179.236 58.0908C179.857 58.0908 180.453 58.3372 180.892 58.7757C181.331 59.2143 181.578 59.8091 181.578 60.4293C181.578 61.0495 181.331 61.6444 180.892 62.0829C180.453 62.5215 179.857 62.7678 179.236 62.7678C179.155 62.7678 179.073 62.7636 178.992 62.7552C179.568 62.6949 180.101 62.4239 180.488 61.9944C180.876 61.5649 181.09 61.0074 181.09 60.4293Z" fill="#2F2E41"/>
<path d="M175.329 68.7844C177.484 68.7844 179.231 67.7375 179.231 66.4459C179.231 65.1544 177.484 64.1074 175.329 64.1074C173.173 64.1074 171.426 65.1544 171.426 66.4459C171.426 67.7375 173.173 68.7844 175.329 68.7844Z" fill="#2F2E41"/>
<path d="M236.803 11.2237C236.644 8.40891 235.489 5.74214 233.544 3.69886C231.598 1.65558 228.99 0.368606 226.183 0.0673848C223.376 -0.233836 220.553 0.470283 218.218 2.0542C215.882 3.63812 214.186 5.99887 213.431 8.71557C213.287 8.7104 213.143 8.70461 212.997 8.70461C210.424 8.70508 207.919 9.5377 205.859 11.0779C203.799 12.6181 202.293 14.7831 201.568 17.249C199.862 16.5007 197.957 16.3383 196.149 16.7873C194.341 17.2364 192.734 18.2714 191.578 19.7304H228.737C229.821 19.7335 230.894 19.518 231.893 19.097C232.892 18.676 233.795 18.0581 234.549 17.2803C235.303 16.5024 235.892 15.5806 236.281 14.5701C236.67 13.5595 236.85 12.481 236.812 11.3991C236.81 11.3407 236.807 11.2823 236.803 11.2237Z" fill="#E6E6E6"/>
<path d="M205.739 36.2604C207.506 36.2604 208.938 34.8298 208.938 33.0651C208.938 31.3004 207.506 29.8699 205.739 29.8699C203.972 29.8699 202.539 31.3004 202.539 33.0651C202.539 34.8298 203.972 36.2604 205.739 36.2604Z" fill="#E6E6E6"/>
<path d="M215.399 28.1922C216.87 28.1922 218.063 27.001 218.063 25.5316C218.063 24.0623 216.87 22.8711 215.399 22.8711C213.927 22.8711 212.734 24.0623 212.734 25.5316C212.734 27.001 213.927 28.1922 215.399 28.1922Z" fill="#E6E6E6"/>
<path d="M228.403 43.1832C230.17 43.1832 231.602 41.7527 231.602 39.988C231.602 38.2233 230.17 36.7927 228.403 36.7927C226.636 36.7927 225.203 38.2233 225.203 39.988C225.203 41.7527 226.636 43.1832 228.403 43.1832Z" fill="#E6E6E6"/>
<path d="M204.137 57.8283C205.904 57.8283 207.337 56.3977 207.337 54.633C207.337 52.8683 205.904 51.4377 204.137 51.4377C202.37 51.4377 200.938 52.8683 200.938 54.633C200.938 56.3977 202.37 57.8283 204.137 57.8283Z" fill="#E6E6E6"/>
<path d="M228.403 76.2011C230.17 76.2011 231.602 74.7705 231.602 73.0058C231.602 71.2411 230.17 69.8105 228.403 69.8105C226.636 69.8105 225.203 71.2411 225.203 73.0058C225.203 74.7705 226.636 76.2011 228.403 76.2011Z" fill="#E6E6E6"/>
<path d="M223.331 134.618C223.333 134.583 223.337 134.549 223.337 134.514C223.337 133.979 223.203 133.452 222.947 132.982C222.69 132.512 222.319 132.114 221.868 131.825C221.417 131.535 220.9 131.364 220.365 131.327C219.83 131.289 219.294 131.387 218.807 131.611C218.35 131.084 217.733 130.721 217.049 130.578C216.366 130.436 215.655 130.52 215.024 130.82C214.394 131.12 213.879 131.617 213.559 132.237C213.24 132.857 213.132 133.564 213.253 134.25C213.237 134.25 213.221 134.248 213.205 134.248C212.695 134.247 212.193 134.368 211.74 134.6C211.287 134.832 210.895 135.169 210.599 135.582C210.302 135.996 210.108 136.474 210.034 136.977C209.96 137.481 210.007 137.994 210.172 138.476C210.336 138.957 210.613 139.392 210.98 139.745C211.347 140.098 211.793 140.358 212.281 140.504C212.769 140.65 213.285 140.678 213.786 140.584C214.286 140.491 214.758 140.28 215.16 139.968C215.414 140.462 215.793 140.882 216.259 141.185C216.725 141.489 217.262 141.665 217.817 141.698C218.372 141.731 218.926 141.618 219.424 141.372C219.923 141.125 220.348 140.753 220.659 140.292C221.039 140.569 221.477 140.758 221.939 140.847C222.401 140.935 222.878 140.92 223.334 140.803C223.79 140.686 224.214 140.47 224.577 140.171C224.94 139.871 225.232 139.495 225.432 139.07C225.633 138.644 225.737 138.18 225.736 137.71C225.736 137.239 225.632 136.775 225.431 136.35C225.231 135.924 224.938 135.549 224.575 135.249C224.212 134.95 223.788 134.734 223.331 134.618Z" fill="#E6E6E6"/>
<path d="M231.333 61.556C232.069 61.556 232.666 60.96 232.666 60.2247C232.666 59.4894 232.069 58.8933 231.333 58.8933C230.597 58.8933 230 59.4894 230 60.2247C230 60.96 230.597 61.556 231.333 61.556Z" fill="#E6E6E6"/>
<path d="M222.802 29.6034C223.538 29.6034 224.135 29.0073 224.135 28.272C224.135 27.5367 223.538 26.9407 222.802 26.9407C222.066 26.9407 221.469 27.5367 221.469 28.272C221.469 29.0073 222.066 29.6034 222.802 29.6034Z" fill="#E6E6E6"/>
<path d="M218.271 62.6212C219.007 62.6212 219.604 62.0251 219.604 61.2899C219.604 60.5546 219.007 59.9585 218.271 59.9585C217.534 59.9585 216.938 60.5546 216.938 61.2899C216.938 62.0251 217.534 62.6212 218.271 62.6212Z" fill="#E6E6E6"/>
<path d="M219.337 61.2897C220.073 61.2897 220.67 60.6936 220.67 59.9583C220.67 59.223 220.073 58.627 219.337 58.627C218.601 58.627 218.004 59.223 218.004 59.9583C218.004 60.6936 218.601 61.2897 219.337 61.2897Z" fill="#E6E6E6"/>
<path d="M220.134 59.9584C220.87 59.9584 221.467 59.3623 221.467 58.627C221.467 57.8917 220.87 57.2957 220.134 57.2957C219.398 57.2957 218.801 57.8917 218.801 58.627C218.801 59.3623 219.398 59.9584 220.134 59.9584Z" fill="#E6E6E6"/>
<path d="M216.935 71.1417C217.671 71.1417 218.268 70.5457 218.268 69.8104C218.268 69.0751 217.671 68.479 216.935 68.479C216.198 68.479 215.602 69.0751 215.602 69.8104C215.602 70.5457 216.198 71.1417 216.935 71.1417Z" fill="#E6E6E6"/>
<path d="M236.665 86.0531C237.401 86.0531 237.998 85.457 237.998 84.7217C237.998 83.9865 237.401 83.3904 236.665 83.3904C235.929 83.3904 235.332 83.9865 235.332 84.7217C235.332 85.457 235.929 86.0531 236.665 86.0531Z" fill="#E6E6E6"/>
<path d="M208.138 86.8519C208.874 86.8519 209.471 86.2558 209.471 85.5206C209.471 84.7853 208.874 84.1892 208.138 84.1892C207.402 84.1892 206.805 84.7853 206.805 85.5206C206.805 86.2558 207.402 86.8519 208.138 86.8519Z" fill="#E6E6E6"/>
<path d="M209.736 45.8461C210.472 45.8461 211.069 45.25 211.069 44.5147C211.069 43.7794 210.472 43.1833 209.736 43.1833C208.999 43.1833 208.402 43.7794 208.402 44.5147C208.402 45.25 208.999 45.8461 209.736 45.8461Z" fill="#E6E6E6"/>
<path d="M215.868 69.8104C216.605 69.8104 217.201 69.2144 217.201 68.4791C217.201 67.7438 216.605 67.1477 215.868 67.1477C215.132 67.1477 214.535 67.7438 214.535 68.4791C214.535 69.2144 215.132 69.8104 215.868 69.8104Z" fill="#E6E6E6"/>
<path d="M214.536 67.6803C215.273 67.6803 215.869 67.0842 215.869 66.3489C215.869 65.6136 215.273 65.0176 214.536 65.0176C213.8 65.0176 213.203 65.6136 213.203 66.3489C213.203 67.0842 213.8 67.6803 214.536 67.6803Z" fill="#E6E6E6"/>
</g>
<defs>
<clipPath id="clip0_1506_37385">
<rect width="238" height="144" fill="white"/>
</clipPath>
</defs>
</svg>

<svg width="238" height="144" fill="none" xmlns="http://www.w3.org/2000/svg"><g clip-path="url(#a)"><path d="M19.703 31.242c6.773 0 12.265-5.484 12.265-12.249 0-6.764-5.492-12.248-12.265-12.248-6.774 0-12.265 5.484-12.265 12.248 0 6.765 5.49 12.249 12.265 12.249Z" fill="#FF6584"/><path d="M118.386 144c65.382 0 118.385-2.146 118.385-4.793 0-2.647-53.003-4.793-118.385-4.793C53.003 134.414 0 136.56 0 139.207 0 141.854 53.003 144 118.386 144Z" fill="#E6E6E6"/><path d="M30.13 79.14c16.64 0 30.129-13.47 30.129-30.088 0-16.617-13.49-30.088-30.13-30.088S0 32.434 0 49.052C0 65.67 13.49 79.141 30.13 79.141Z" fill="#6C63FF"/><path d="M33.035 139.681h-6.172l2.814-95.16 3.358 95.16Z" fill="#3F3D56"/><path d="m30.219 62.556 6.625-9.153-6.716 11.419-.726-1.27.817-.996Zm-.723 9.244-6.625-9.153 6.716 11.419.726-1.269-.817-.997Zm191.144 67.981h-6.171l2.813-95.16 3.358 95.16Z" fill="#3F3D56"/><path d="m217.828 62.656 6.625-9.153-6.715 11.419-.726-1.27.816-.996Zm-.727 9.244-6.624-9.153 6.715 11.419.726-1.269-.817-.997Zm-94.7 67.865c30.998 0 56.127-25.095 56.127-56.051 0-30.956-25.129-56.051-56.127-56.051-30.999 0-56.128 25.095-56.128 56.05 0 30.957 25.13 56.052 56.128 56.052Z" fill="#3F3D56"/><path d="M122.399 135.125c28.432 0 51.481-23.018 51.481-51.411 0-28.394-23.049-51.411-51.481-51.411-28.432 0-51.481 23.017-51.481 51.41 0 28.394 23.049 51.412 51.481 51.412Z" fill="#fff"/><path d="M122.212 90.767c3.798 0 6.877-3.075 6.877-6.868 0-3.792-3.079-6.867-6.877-6.867-3.797 0-6.876 3.075-6.876 6.867a6.872 6.872 0 0 0 6.876 6.868Zm1.488-55.866h-2.973v5.568h2.973v-5.568Zm0 92.429h-2.973v5.568h2.973v-5.568ZM78.723 85.384v-2.97h-5.576v2.97h5.576Zm92.554 0v-2.97h-5.575v2.97h5.575Z" fill="#3F3D56"/><path d="m120.23 86.88 2.542-5.802 31.842 17.611-34.384-11.808Zm9.419-72.766h-14.497v16.704h14.497V14.114Z" fill="#3F3D56"/><path d="M122.398 18.754c9.238 0 16.727-2.077 16.727-4.64 0-2.563-7.489-4.64-16.727-4.64-9.237 0-16.726 2.078-16.726 4.64 0 2.563 7.489 4.64 16.726 4.64Z" fill="#3F3D56"/><path d="m153.714 93.643-.93 1.3s-4.274 5.01-4.46 2.598c-.186-2.413 3.159-4.083 3.159-4.083l1.859-1.114.372 1.3Zm26.457 4.384.778 1.394s2.706 6.003.443 5.138c-2.264-.865-2.344-4.599-2.344-4.599l-.212-2.154 1.335.22Z" fill="#FFB8B8"/><path d="M175.987 73.296a5.655 5.655 0 0 0 5.659-5.652 5.655 5.655 0 0 0-5.659-5.651 5.655 5.655 0 0 0-5.659 5.651 5.655 5.655 0 0 0 5.659 5.651Z" fill="#2F2E41"/><path d="m175.461 114.059.743 4.826v1.485h4.275v-1.856s.186-3.341-.558-4.269c-.743-.928-4.46-.186-4.46-.186Zm-7.621 0 .743 4.826v1.485h4.275v-1.856s.186-3.341-.558-4.269c-.743-.928-4.46-.186-4.46-.186Z" fill="#FFB8B8"/><path d="M170.718 75.297s-1.644.866-.521 2.834c1.123 1.969 7.712 22.334 7.712 22.334l3.801-1.077-3.352-12.88-1.92-8.095-5.72-3.116Z" fill="#6C63FF"/><path d="M175.368 73.506a4.272 4.272 0 0 0 4.275-4.269 4.272 4.272 0 0 0-4.275-4.269 4.272 4.272 0 0 0-4.274 4.269 4.272 4.272 0 0 0 4.274 4.269Z" fill="#FFB8B8"/><path d="m177.32 69.887-.558 8.723-3.903-2.784s1.301-5.197.93-5.568l3.531-.371Z" fill="#FFB8B8"/><path d="m177.317 77.867-4.205-3.109s-1.928-.788-2.486.14c-.558.928-3.345 14.662-1.859 17.26 0 0 7.992 1.671 9.665.743l.743-4.826s.929-2.97-.557-4.825l-1.301-5.383Z" fill="#6C63FF"/><path d="M171.743 75.084s-1.487-1.114-2.788.742c-1.301 1.856-16.912 16.518-16.912 16.518l2.602 2.97 10.222-8.538 6.504-5.197.372-6.495Z" fill="#6C63FF"/><path d="M178.526 92.808s-9.2-1.763-10.129-.464l-.186 2.042s-2.044 3.898-.929 10.208c1.115 6.31.372 10.208.372 10.208s5.018-.557 8.735 0c3.717.557 4.274 0 4.274 0l-2.137-21.994Zm2.325 26.819-5.39.186 1.858 13.92s-1.486 5.939.186 6.31a18.87 18.87 0 0 0 3.531.372s1.673 1.67 3.532 1.484a10.41 10.41 0 0 0 3.531-1.113s.372-1.114-.929-1.485c-1.301-.371-4.833-1.485-5.576-5.382l-.743-14.292Z" fill="#2F2E41"/><path d="m173.23 119.627-5.39.186 1.858 13.92s-1.486 5.939.186 6.31a18.87 18.87 0 0 0 3.531.372s1.673 1.67 3.532 1.484a10.41 10.41 0 0 0 3.531-1.113s.371-1.114-.93-1.485c-1.3-.371-4.832-1.485-5.575-5.382l-.743-14.292Zm4.737-55.592a2.34 2.34 0 1 0 0-4.677 2.34 2.34 0 0 0-2.342 2.338 2.34 2.34 0 0 0 2.342 2.339Z" fill="#2F2E41"/><path d="M181.09 60.43a2.341 2.341 0 0 0-2.098-2.326 2.344 2.344 0 0 1 2.586 2.326 2.338 2.338 0 0 1-2.586 2.325 2.342 2.342 0 0 0 2.098-2.326Zm-5.761 8.354c2.155 0 3.902-1.047 3.902-2.338 0-1.292-1.747-2.339-3.902-2.339-2.156 0-3.903 1.047-3.903 2.339 0 1.291 1.747 2.338 3.903 2.338Z" fill="#2F2E41"/><path d="M236.803 11.224a11.886 11.886 0 0 0-3.259-7.525 11.921 11.921 0 0 0-20.113 5.017 10.388 10.388 0 0 0-.434-.011c-2.573 0-5.078.833-7.138 2.373a11.897 11.897 0 0 0-4.291 6.171 8.43 8.43 0 0 0-9.99 2.481h37.159a8.066 8.066 0 0 0 5.812-2.45 8.048 8.048 0 0 0 2.254-6.056ZM205.739 36.26a3.197 3.197 0 0 0 3.199-3.195 3.197 3.197 0 0 0-3.199-3.195c-1.767 0-3.2 1.43-3.2 3.195a3.198 3.198 0 0 0 3.2 3.195Zm9.66-8.068a2.662 2.662 0 0 0 2.664-2.66c0-1.47-1.193-2.66-2.664-2.66a2.663 2.663 0 0 0-2.665 2.66 2.662 2.662 0 0 0 2.665 2.66Zm13.004 14.991a3.197 3.197 0 0 0 3.199-3.195 3.197 3.197 0 0 0-3.199-3.195c-1.767 0-3.2 1.43-3.2 3.195a3.198 3.198 0 0 0 3.2 3.195Zm-24.266 14.645c1.767 0 3.2-1.43 3.2-3.195a3.198 3.198 0 0 0-3.2-3.195 3.197 3.197 0 0 0-3.199 3.195 3.197 3.197 0 0 0 3.199 3.195Zm24.266 18.373a3.197 3.197 0 0 0 3.199-3.195 3.197 3.197 0 0 0-3.199-3.195c-1.767 0-3.2 1.43-3.2 3.195a3.198 3.198 0 0 0 3.2 3.195Zm-5.072 58.417c.002-.035.006-.069.006-.104a3.194 3.194 0 0 0-4.53-2.903 3.19 3.19 0 0 0-5.554 2.639l-.048-.002a3.2 3.2 0 0 0-3.171 2.729 3.192 3.192 0 0 0 2.247 3.527 3.195 3.195 0 0 0 2.879-.536 3.195 3.195 0 0 0 2.657 1.73 3.2 3.2 0 0 0 2.842-1.406 3.202 3.202 0 0 0 2.675.511 3.192 3.192 0 0 0-.003-6.185Zm8.002-73.062a1.332 1.332 0 1 0 .002-2.664 1.332 1.332 0 0 0-.002 2.664Zm-8.531-31.953a1.332 1.332 0 1 0 .001-2.664 1.332 1.332 0 0 0-.001 2.664Zm-4.531 33.018a1.332 1.332 0 1 0 .001-2.664 1.332 1.332 0 0 0-.001 2.664Z" fill="#E6E6E6"/><path d="M219.337 61.29a1.332 1.332 0 1 0 .001-2.665 1.332 1.332 0 0 0-.001 2.665Z" fill="#E6E6E6"/><path d="M220.134 59.958a1.332 1.332 0 1 0 .001-2.664 1.332 1.332 0 0 0-.001 2.664Zm-3.199 11.184a1.332 1.332 0 1 0 .002-2.665 1.332 1.332 0 0 0-.002 2.665Zm19.73 14.911a1.332 1.332 0 1 0 .001-2.665 1.332 1.332 0 0 0-.001 2.665Zm-28.527.799a1.332 1.332 0 1 0 .001-2.665 1.332 1.332 0 0 0-.001 2.665Zm1.598-41.006a1.332 1.332 0 1 0-1.334-1.331c0 .735.597 1.331 1.334 1.331Z" fill="#E6E6E6"/><path d="M215.868 69.81a1.332 1.332 0 1 0 0-2.662 1.332 1.332 0 1 0 0 2.662Z" fill="#E6E6E6"/><path d="M214.536 67.68a1.332 1.332 0 1 0 0-2.662 1.332 1.332 0 1 0 0 2.662Z" fill="#E6E6E6"/></g><defs><clipPath id="a"><path fill="#fff" d="M0 0h238v144H0z"/></clipPath></defs></svg>
